actions/16/view-calendar.svg

<svg xmlns="http://www.w3.org/2000/svg" viewBox="0 0 16 16">
  <defs id="defs3051">
<style type="text/css" id="current-color-scheme">.ColorScheme-Text {color:#fcfcfc;}</style>
  </defs>
 <path style="fill:currentColor;fill-opacity:1;stroke:none" 
       d="m 2,2 v 10 c 0,0 0,2 2,2 2,0 6,0 8,0 2,0 2,-2 2,-2 V 2 H 12 V 4 H 10 V 2 H 6 V 4 H 4 V 2 Z m 1,3 h 10 v 7 c 0,0 0,1 -1,1 -1,0 -7,0 -8,0 C 3,13 3,12 3,12 Z M 4,6 V 8 H 6 V 6 Z M 7,6 V 8 H 9 V 6 Z m 3,0 v 2 h 2 V 6 Z M 4,9 v 2 H 6 V 9 Z m 3,0 v 2 H 9 V 9 Z m 3,0 v 2 h 2 V 9 Z"
     class="ColorScheme-Text"
     />
</svg>

<svg xmlns="http://www.w3.org/2000/svg" viewBox="0 0 16 16">
  <defs id="defs3051">
    <style type="text/css" id="current-color-scheme">
      .ColorScheme-Text {
        color:#eff0f1;
      }
      </style>
  </defs>
 <path style="fill:currentColor;fill-opacity:1;stroke:none" 
       d="M 2 2 L 2 14 L 14 14 L 14 2 L 12 2 L 12 4 L 10 4 L 10 2 L 6 2 L 6 4 L 4 4 L 4 2 L 2 2 z M 3 5 L 13 5 L 13 13 L 3 13 L 3 5 z M 4 6 L 4 8 L 6 8 L 6 6 L 4 6 z M 7 6 L 7 8 L 9 8 L 9 6 L 7 6 z M 10 6 L 10 8 L 12 8 L 12 6 L 10 6 z M 4 9 L 4 11 L 6 11 L 6 9 L 4 9 z M 7 9 L 7 11 L 9 11 L 9 9 L 7 9 z M 10 9 L 10 11 L 12 11 L 12 9 L 10 9 z "
     class="ColorScheme-Text"
     />
</svg>
